svg/building/bridge_2_line.svg

<?xml version="1.0" encoding="UTF-8"?>
<svg width="24px" height="24px" viewBox="0 0 24 24" version="1.1" xmlns="http://www.w3.org/2000/svg" xmlns:xlink="http://www.w3.org/1999/xlink">
    <title>bridge_line</title>
    <g id="页面-1" stroke="none" stroke-width="1" fill="none" fill-rule="evenodd">
        <g id="Building" transform="translate(0.000000, -96.000000)">
            <g id="bridge_line" transform="translate(0.000000, 96.000000)">
                 <path d="M24,0 L24,24 L0,24 L0,0 L24,0 Z M12.5934901,23.257841 L12.5819402,23.2595131 L12.5108777,23.2950439 L12.4918791,23.2987469 L12.4918791,23.2987469 L12.4767152,23.2950439 L12.4056548,23.2595131 C12.3958229,23.2563662 12.3870493,23.2590235 12.3821421,23.2649074 L12.3780323,23.275831 L12.360941,23.7031097 L12.3658947,23.7234994 L12.3769048,23.7357139 L12.4804777,23.8096931 L12.4953491,23.8136134 L12.4953491,23.8136134 L12.5071152,23.8096931 L12.6106902,23.7357139 L12.6232938,23.7196733 L12.6232938,23.7196733 L12.6266527,23.7031097 L12.609561,23.275831 C12.6075724,23.2657013 12.6010112,23.2592993 12.5934901,23.257841 L12.5934901,23.257841 Z M12.8583906,23.1452862 L12.8445485,23.1473072 L12.6598443,23.2396597 L12.6498822,23.2499052 L12.6498822,23.2499052 L12.6471943,23.2611114 L12.6650943,23.6906389 L12.6699349,23.7034178 L12.6699349,23.7034178 L12.678386,23.7104931 L12.8793402,23.8032389 C12.8914285,23.8068999 12.9022333,23.8029875 12.9078286,23.7952264 L12.9118235,23.7811639 L12.8776777,23.1665331 C12.8752882,23.1545897 12.8674102,23.1470016 12.8583906,23.1452862 L12.8583906,23.1452862 Z M12.1430473,23.1473072 C12.1332178,23.1423925 12.1221763,23.1452606 12.1156365,23.1525954 L12.1099173,23.1665331 L12.0757714,23.7811639 C12.0751323,23.7926639 12.0828099,23.8018602 12.0926481,23.8045676 L12.108256,23.8032389 L12.3092106,23.7104931 L12.3186497,23.7024347 L12.3186497,23.7024347 L12.3225043,23.6906389 L12.340401,23.2611114 L12.337245,23.2485176 L12.337245,23.2485176 L12.3277531,23.2396597 L12.1430473,23.1473072 Z" id="MingCute" fill-rule="nonzero"></path>
                <path d="M15,18 C15.5523,18 16,18.4477 16,19 C16,19.51285 15.613973,19.9355092 15.1166239,19.9932725 L15,20 L12,20 C11.4477,20 11,19.5523 11,19 C11,18.48715 11.386027,18.0644908 11.8833761,18.0067275 L12,18 L15,18 Z M13,15 C13.5523,15 14,15.4477 14,16 C14,16.5523 13.5523,17 13,17 L9,17 C8.44772,17 8,16.5523 8,16 C8,15.4477 8.44772,15 9,15 L13,15 Z M15,3 C15.51285,3 15.9355092,3.38604429 15.9932725,3.88337975 L16,4 L16,4.45439 C17.5906462,4.83229769 18.8492402,5.39081888 19.775389,5.91278556 L20,6.04239 L20,6 C20,5.44772 20.4477,5 21,5 C21.51285,5 21.9355092,5.38604429 21.9932725,5.88337975 L22,6 L22,12.9 C22,13.467 21.5709778,13.9338222 21.0198548,13.9935452 L20.9,14 L16.0446,14 C15.50616,14 15.0628453,13.5925813 15.0061298,13.0692178 L15,12.9554 L15,12.5 C15,10.8431 13.6569,9.5 12,9.5 C10.402275,9.5 9.09633597,10.7488774 9.00509252,12.3237227 L9,12.5 L9,12.9554 C9,13.49384 8.59260747,13.9371547 8.06926366,13.9938702 L7.95545,14 L3.1,14 C2.53299067,14 2.06617653,13.5709778 2.00645469,13.0198548 L2,12.9 L2,6 C2,5.44772 2.44772,5 3,5 C3.51283143,5 3.93550653,5.38604429 3.9932722,5.88337975 L4,6 L4,6.04239 C4.87070154,5.52802385 6.07397491,4.95900586 7.60926168,4.55250403 L8,4.45439 L8,4 C8,3.44772 8.44772,3 9,3 C9.51283143,3 9.93550653,3.38604429 9.9932722,3.88337975 L10,4 L10,4.10891 C10.6283,4.03915 11.295,4 12,4 C12.52875,4 13.0359563,4.02202188 13.5215766,4.06246281 L14,4.10891 L14,4 C14,3.44772 14.4477,3 15,3 Z M12,6 C8.60017424,6 6.24706566,7.02248623 4.9371568,7.81167599 L4.64280631,7.99595928 L4.64280631,7.99595928 L4.38850388,8.16742622 L4.38850388,8.16742622 L4.17423872,8.32221905 L4.17423872,8.32221905 L4,8.45648 L4,8.45648 L4,12 L7.02469,12 C7.27555,9.47334 9.40733,7.5 12,7.5 C14.5927,7.5 16.7245,9.47334 16.9753,12 L20,12 L20,8.45648 L19.8257552,8.32221905 L19.8257552,8.32221905 L19.611486,8.16742622 L19.611486,8.16742622 L19.3571815,7.99595928 L19.3571815,7.99595928 L19.0628305,7.81167599 C17.7529224,7.02248623 15.3998485,6 12,6 Z" id="形状" fill="#09244B"></path>
            </g>
        </g>
    </g>
</svg>

<svg xmlns="http://www.w3.org/2000/svg" width="24" height="24"><g fill="none" fill-rule="evenodd"><path d="M24 0v24H0V0h24ZM12.593 23.258l-.011.002-.071.035-.02.004-.014-.004-.071-.035c-.01-.004-.019-.001-.024.005l-.004.01-.017.428.005.02.01.013.104.074.015.004.012-.004.104-.074.012-.016.004-.017-.017-.427c-.002-.01-.009-.017-.017-.018Zm.265-.113-.013.002-.185.093-.01.01-.003.011.018.43.005.012.008.007.201.093c.012.004.023 0 .029-.008l.004-.014-.034-.614c-.003-.012-.01-.02-.02-.022Zm-.715.002a.023.023 0 0 0-.027.006l-.006.014-.034.614c0 .012.007.02.017.024l.015-.002.201-.093.01-.008.004-.011.017-.43-.003-.012-.01-.01-.184-.092Z"/><path fill="#09244B" d="M15 18a1 1 0 0 1 .117 1.993L15 20h-3a1 1 0 0 1-.117-1.993L12 18h3Zm-2-3a1 1 0 1 1 0 2H9a1 1 0 1 1 0-2h4Zm2-12a1 1 0 0 1 .993.883L16 4v.454c1.59.378 2.85.937 3.775 1.459l.225.13V6a1 1 0 0 1 1.993-.117L22 6v6.9a1.1 1.1 0 0 1-.98 1.094L20.9 14h-4.855c-.539 0-.982-.407-1.039-.93L15 12.954V12.5a3 3 0 0 0-5.995-.176L9 12.5v.455c0 .539-.407.982-.93 1.039L7.954 14H3.1a1.1 1.1 0 0 1-1.094-.98L2 12.9V6a1 1 0 0 1 1.993-.117L4 6v.042a14.279 14.279 0 0 1 3.61-1.49L8 4.455V4a1 1 0 0 1 1.993-.117L10 4v.109a18.329 18.329 0 0 1 3.522-.046l.478.046V4a1 1 0 0 1 1-1Zm-3 3C8.6 6 6.247 7.022 4.937 7.812l-.294.184-.254.171-.215.155L4 8.456V12h3.025a5 5 0 0 1 9.95 0H20V8.456l-.174-.134-.215-.155-.254-.171-.294-.184C17.753 7.022 15.4 6 12 6Z"/></g></svg>
